X:1
T:Milongueo Del Ayer
T:Milongueo Del Ayer
T:Abel Fleury (1903-1958)
C:Abel Fleury (1903-1958)
%%score ( 1 2 )
L:1/8
Q:1/4=100
M:2/4
K:C
V:1 treble-8 nm="Chitarra classica" snm="Chit. cl."
V:2 treble-8 
V:1
 A,/e/c/[EA]/ e/c/[EA] | E,/e/d/[^GB]/ e/d/[GB] | E,/e/d/[^GB]/ e/d/[GB] | A,/e/c/[EA]/ e/c/[EA] |: %4
 z/ (^g/a/)e/ =g/d/f/^d/ | ed- df- | fe- ed | dc- ce- | ed- dc | cB- Bd- | dc- cB |1 Ac- c z :|2 %12
 A4 |: A,/c'/e/[Ac]/ c'/e/[Ac]/c'/ | E,/c'/e/[^Gd]/ b/e/[Gd] | E,/b/e/[^Gd]/ b/e/[Gd]/b/ | %16
 A,/b/e/[Ac]/ a/e/[Ac] :| A,/a/c/A/ g/c/A/f/ | E,/f/B/[E^G]/ e/B/[EG] | E,/g/B/[E^G]/ f/B/[EG]/e/ | %20
 A,/f/c/[EA]/ e/c/[EA] | A,/e/c/[EA]/ f/c/[EA]/e/ | E,/f/B/[E^G]/ e/B/[EG] | %23
 E,/e/B/[E^G]/ f/B/[EG]/e/ | A,/f/c/[EA]/ e/c/[EA] | A,/a/c/A/ g/c/A/f/ | E,/e/B/[E^G]/ d/G/E/c/ | %27
 E,/B/^G/E/ c/G/E/B/ | [A,A] z/"^VIII" !3!c/ !2!e/!0!e/!2!e/c/ | e/e/e/c/ e/e/e/B/ | %30
 d/e/d/d/ f/e/f/c/ | e/e/e/B/ d/e/d/A/ | c/e/c/c/ e/e/e/B/ | d/e/d/A/ c/e/c/^G/ | %34
 B/e/B/B/ d/e/d/A/ | c/e/c/^G/ B/e/B/B/ | A>c e/a/e/B/ | d/g/d/A/ c/f/c/^G/ | B/e/B/F/ A/d/A/E/ | %39
 A/c/A/D/ ^G/B/G/E/ | A2 [A,cea]2 |] %41
V:2
 x4 | x4 | x4 | x4 |: A,4 | E,>B, ^G2 | E,>^G B2 | A,>E A2 | A,>E A2 | E,>E ^G2 | E,>E ^G2 |1 %11
 A,>E AE, :|2 A,>E eE, |: x4 | x4 | x4 | x4 :| x4 | x4 | x4 | x4 | x4 | x4 | x4 | x4 | x4 | x4 | %27
 x4 | x4 | x4 | x4 | x4 | x4 | x4 | x4 | x4 | x4 | x4 | x4 | x4 | x4 |] %41

